X: 0
T: As I Went Out Upon The Ice
C: Trad
M: 2/4
L: 1/8
K: Ador
 g>f |:"Am" eA BA | eA AB/d/ | eA BA | "G"  G>A Bd  |
"Am" eA BA | eA BA | "G" GB dB |1 "Am" A2 g>f :|2"Am"A2 Bd || 
|: "Am"ea  a>b | "Em"    ag ed | "G"B/c/d ef     | "Em"   ga/g/ "D7"f/e/d  |
       "Am"ea- ab  | "Em"a>g ed    | "G"Bd    "Em"gB |1"Am"A2 Bd :|2 "Am"A2  A2 |]